X: 1
T: Calum's Road
T: Rathad Chaluim
C: Donald Shaw (Capercallie)
%D:1987
R: air, strathspey
Z: 2020 John Chambers <jc:trillian.mit.edu>
S: https://www.facebook.com/groups/Fiddletuneoftheday/ 2020-10-20
S: https://www.facebook.com/groups/Fiddletuneoftheday/photos/
M: 4/4
L: 1/8
K: D
"^A"|:\
"D"D2 A>F "F#m"A3 A | "G"B<d d>c "Bm"B>A F<A | "G"B2 d>E "D"F2E<D | "Em"B,<D (3DEF "A"E4 |
"D"D2 A>F "F#m"A3 A | "G"B<d d>c "Bm"B>A F<A | "G"B2 d>E "D"F2E<D | "A"B,<D D>E [1 "D"D4 :|2 "D"D2 F>A ||
"^B"|:\
"G"B2 d>c "Em"B4 | "A"A>B A<E "D"F2 F>A | "G"B2 d>c "Bm"B3 A | "Dm"d2 d>e "F#m"(3fed (3dBA |
"G"B2 d>c "Em"B4 | "F#m"A>B A<E "D"F2 F>A | "G"B2 d>E "Bm"F2 E<D | "A"B,<D D>E "D"D4 :|
%%text https://www.youtube.com/watch?v=wprppUPKsnE
